src/components/icons/FootwearIcon.svg

<svg width="36" height="36" viewBox="0 0 36 36" fill="none" xmlns="http://www.w3.org/2000/svg">
<path d="M12.7044 26.769H4.68749C4.4656 26.769 4.28571 26.9668 4.28571 27.2109V29.2285C4.28571 30.1265 4.94988 30.8571 5.76631 30.8571H11.6257C12.442 30.8571 13.1062 30.1266 13.1062 29.2285V27.2109C13.1062 26.9668 12.9263 26.769 12.7044 26.769Z" fill="#2962FF"/>
<path d="M4.68749 9.23101H16.3469C17.1926 9.23101 17.8808 8.47411 17.8808 7.54379V5.5848C17.8808 5.34067 17.7009 5.14285 17.479 5.14285H5.76631C4.94988 5.14285 4.28571 5.87342 4.28571 6.77139V8.78901C4.28571 9.03313 4.4656 9.23101 4.68749 9.23101Z" fill="#2962FF"/>
<path d="M31.3124 26.769H16.9056C16.6837 26.769 16.5038 26.9668 16.5038 27.2109V29.2285C16.5038 30.1265 17.168 30.8571 17.9844 30.8571H30.2337C31.05 30.8571 31.7143 30.1266 31.7143 29.2285V27.2109C31.7142 26.9668 31.5343 26.769 31.3124 26.769Z" fill="#2962FF"/>
<path d="M29.4814 17.2022C28.7437 16.3524 27.7773 15.9211 26.6089 15.9211C25.3773 15.9211 23.899 15.7317 22.5029 15.4593L22.3571 17.3826C22.3221 17.8441 21.9707 18.1931 21.5572 18.1931C21.5348 18.1931 21.5122 18.192 21.4895 18.19C21.0472 18.1494 20.7186 17.7222 20.7555 17.2357L20.9169 15.1066C20.6266 15.0339 20.3471 14.9589 20.0823 14.8831L18.0117 17.1607C17.8548 17.3333 17.6491 17.4196 17.4435 17.4196C17.2379 17.4196 17.0323 17.3333 16.8753 17.1607C16.5615 16.8155 16.5615 16.2559 16.8753 15.9107L18.3547 14.2834C18.1404 14.1872 17.9711 14.0953 17.8559 14.0107C17.7645 13.9436 17.6824 13.8574 17.6086 13.7579L15.6731 14.1321C15.6261 14.1412 15.5793 14.1456 15.5331 14.1456C15.1503 14.1456 14.8111 13.8436 14.7426 13.4146C14.6658 12.9338 14.9578 12.4755 15.3949 12.391L17.0456 12.072C17.0298 11.9475 17.0207 11.8406 17.017 11.761L17.0197 10.9993H5.16274L5.16322 11.7804V11.7881C5.16376 11.827 5.19322 15.6754 4.8734 17.9906C4.69072 19.3112 4.63019 20.66 4.63019 21.8715C4.63019 23.1225 4.69501 24.2262 4.75769 25.001H12.8705L13.9018 23.5633L16.2005 25.001H31.1828C31.2487 21.1001 30.7017 18.6075 29.4814 17.2022Z" fill="#2979FF"/>
<path d="M26.6089 15.9211C27.7773 15.9211 28.7437 16.3524 29.4814 17.2022C30.7017 18.6075 31.2487 21.1001 31.1828 25.001H16.2005L13.9018 23.5633L12.8705 25.001H4.75769C4.69501 24.2262 4.63019 23.1225 4.63019 21.8715C12.1602 22.5301 26.2767 22.1696 22.5029 15.4593C23.899 15.7317 25.3773 15.9211 26.6089 15.9211Z" fill="black" fill-opacity="0.2"/>
</svg>

<svg width="36" height="36" fill="none" xmlns="http://www.w3.org/2000/svg"><path d="M12.704 26.769H4.687c-.221 0-.401.198-.401.442v2.018c0 .898.664 1.628 1.48 1.628h5.86c.816 0 1.48-.73 1.48-1.628V27.21c0-.244-.18-.442-.402-.442zM4.687 9.231h11.66c.846 0 1.534-.757 1.534-1.687v-1.96c0-.243-.18-.441-.402-.441H5.766c-.816 0-1.48.73-1.48 1.628V8.79c0 .244.18.442.401.442zM31.312 26.769H16.906c-.222 0-.402.198-.402.442v2.018c0 .898.664 1.628 1.48 1.628h12.25c.816 0 1.48-.73 1.48-1.628V27.21c0-.244-.18-.442-.402-.442z" fill="#2962FF"/><path d="M29.481 17.202c-.737-.85-1.704-1.28-2.872-1.28-1.232 0-2.71-.19-4.106-.463l-.146 1.924c-.035.461-.386.81-.8.81a.772.772 0 01-.067-.003c-.443-.04-.771-.468-.734-.954l.16-2.13c-.29-.072-.569-.147-.834-.223l-2.07 2.278a.766.766 0 01-.569.259.766.766 0 01-.568-.26.948.948 0 010-1.25l1.48-1.627a2.848 2.848 0 01-.5-.272 1.189 1.189 0 01-.246-.253l-1.936.374a.736.736 0 01-.14.014c-.383 0-.722-.302-.79-.731-.077-.481.215-.94.652-1.024l1.65-.319a4.048 4.048 0 01-.028-.311l.003-.762H5.163v.789c0 .039.03 3.887-.29 6.203a28.737 28.737 0 00-.243 3.88c0 1.252.065 2.355.128 3.13h8.113l1.03-1.438 2.3 1.438h14.982c.066-3.9-.481-6.393-1.702-7.799z" fill="#2979FF"/><path d="M26.609 15.921c1.168 0 2.135.431 2.872 1.281 1.22 1.405 1.768 3.898 1.702 7.799H16.2l-2.3-1.438-1.03 1.438H4.758a39.376 39.376 0 01-.128-3.13c7.53.66 21.647.299 17.873-6.412 1.396.273 2.874.462 4.106.462z" fill="#000" fill-opacity=".2"/></svg>
